X: 5790
T: Caitlin's Smile
R: reel
M: 4/4
K: Amajor
|:"A"Ec3 -c2DB|"D/A"-B2Fd "E/A"-d2Ae|"A"dcBA c4|"E7sus4"B2BA GAB2|
"A"Ec3 -c2DB|"D/A"-B2Fd "E/A"-d2Ae|"A"dcBA "E7sus4"E2cB|1 "A"A6 CD:|2 "A"A6 ce||
"A"a4 gfe2|"A/C#"c3B A2G2|"D"F8|"F#m7"a4 gfe2|"Bm7"f2fe dcBA|"E7sus4"c2B6|
"A"a4 gfe2|"A/C#"f2fe cBAG|"D"F6 "/C#"DE|"Bm7"FGA2 E2c2|"E7sus4"B4 cBAF||

